X:689
T:Pumpkin's Fancy, The 
C:Joe Buchanan's Scottish Tome - Page 216.0
I:216 0
R:Reel
Z:Carl Allison
C:Jerry Tully
L:1/16
M:2/4
K:Amaj
(fe) | "A"(B>c)(f>e) (B>c)(fe) | "A"fecB c2(fe) | "A"faaf efAB | "A"c2(BA) "E7"B2(fe) |
"A"(B<c)(fe) (B<c)(fe) | "A"fecB c2(fe) | "D"faaf "E7"efAB | "A"c2A2 A2 :|
"A"a2(fe) a2(fe) | "A"fecB c2(fe) | "D"faaf "A"efAB | "A"c2(BA) "E7"B2(fe) |
"A"a2(fe) a2(fe) | "A"fecB c2(fe) | "D"faaf "E7"efAB | "A"c2A2 A2(fe) |
"A"a2(fe) a2(fe) | "A"fecB c2(fe) | "D"faaf "E7"efAB | "A"c2(BA) A2(fe) |
"A"B<c)(fe) (B<c)(fe) | "A"BccB c2fe | "D"faaf "E7"efAB | "A"c2A2 A2 |]
fe | "A"(B<c)(fe) c2(fe) | "A"BccB c2(fe) | "A"(Bc)(fe) A2(fe) | "A"fecA "E7"B2(fe) |
"A"(B<c)(fe) c2(fe) | "A"BccB c2(fe) | "D"faaf "E7"efAB | "A"c2A2 A2 :|
"A"a2fe c2fe | "A"fafe c2fe | "D"faaf "A"efAB | "A"c2BA "E7"B2fe |
"A"a2fe c2fe | "A"fafe c2fe | "F#m"faaf "A"efAB | "A"c2A2 B2fe |
"A"a2fe c2fe | "A"fafe c2fe | "D"faaf "A"efAB | "A"c2BA "E7"B2fe |
"A"B<cfe B<cfe | "A"fecB c2fe | "D"faaf "E7"efAB | "A"c2A2 A2 |]

